X: 28471
T: Muñeira D'Antón
R: jig
M: 6/8
K: Cmajor
EF|:~G2E FEF|~G2 E FEF|DEF GAB|~A2 G GEF|
~G2E FEF ~|G2E FEF|DEF BAG|1 c4 EF:|2 c3 ~G2c||
|:GEG FDF|~G2E GEG|DEF GAB|~A2G G2c|
BGB AFA|~G2E GEG|DEF GAB|1 ~c3 ~G2c:|2 ~c2 G GAG||
|:~E2 E EDE|~F2A ABA|~E2E EDE|~G2G GAG|
~E2 E EDE|~F2G cBA|GAG FED|1 ~C2G GAG:|2 ~C4 EF||

